www/assets/icons/turn_sharp_left.svg

<svg xmlns="http://www.w3.org/2000/svg" width="24" height="24" viewBox="0 0 24 24" fill='currentColor'><path d="M7.5 6.83 5.91 8.41 4.5 7l4-4 4 4-1.41 1.41L9.5 6.83V13h8c1.1 0 2 .9 2 2v6h-2v-6h-8c-1.1 0-2-.9-2-2z"/></svg>

<svg width="24" height="24" viewBox="0 0 24 24" xmlns="http://www.w3.org/2000/svg" fill='currentColor'><path d="M7.5 6.83L5.91 8.41L4.5 7L8.5 3L12.5 7L11.09 8.41L9.5 6.83V13H17.5C18.6 13 19.5 13.9 19.5 15V21H17.5V15H9.5C8.4 15 7.5 14.1 7.5 13V6.83Z"/></svg>
